packages/core/src/svgs/fx.svg

<svg width="24" height="24" viewBox="0 0 24 24" fill="none" xmlns="http://www.w3.org/2000/svg">
<g clip-path="url(#clip0_31_10587)">
<path d="M0 0H24V24H0V0Z" fill="url(#paint0_linear_31_10587)"/>
<path d="M7.28557 10.7145H5.57129V9.85732H7.28557C7.28557 9.87875 7.28557 9.8316 7.28557 9.85732C7.28557 9.57446 7.26843 9.14589 7.28557 8.86303C7.31986 8.32732 7.28557 7.83446 7.58986 7.39303C7.89806 6.95298 8.35976 6.64416 8.88415 6.52732C9.31272 6.42018 9.74129 6.4116 10.1784 6.45018C10.6284 6.49303 11.0741 6.59589 11.4941 6.76732L11.5713 6.8016L11.2799 7.56446L11.1041 7.4916C10.557 7.2755 9.96124 7.21325 9.38129 7.3116C8.71272 7.42303 8.14272 7.92018 8.14272 8.68303V9.85732H10.7141V10.7145H8.14272V16.7145H7.28557V10.7145Z" fill="white"/>
<path d="M16.0715 13.7144L17.1429 11.5715H16.2858L15.4286 13.2858L14.5715 11.5715H13.7143L14.7858 13.7144L13.7143 15.8572H14.5715L15.4286 14.1429L16.2858 15.8572H17.1429L16.0715 13.7144ZM13.3029 16.2515L12.7672 16.7144C11.2586 15.2444 11.0958 12.4244 12.7586 10.7144L13.2986 11.1858C12.6129 12.0172 12.4286 12.6301 12.4286 13.7144C12.4286 14.5501 12.7758 15.6172 13.3029 16.2515ZM17.5543 16.2515L18.0943 16.7144C19.5943 15.2444 19.7658 12.4244 18.0986 10.7144L17.5586 11.1858C18.2443 12.0172 18.4286 12.6129 18.4286 13.7144C18.4286 14.5929 18.0772 15.6044 17.5543 16.2515Z" fill="#F7D509"/>
</g>
<defs>
<linearGradient id="paint0_linear_31_10587" x1="4.46571" y1="4.16143" x2="29.2071" y2="32.58" gradientUnits="userSpaceOnUse">
<stop stop-color="#1A1E21"/>
<stop offset="1" stop-color="#06060A"/>
</linearGradient>
<clipPath id="clip0_31_10587">
<rect width="24" height="24" fill="white"/>
</clipPath>
</defs>
</svg>

<svg xmlns="http://www.w3.org/2000/svg" width="24" height="24" fill="none" viewBox="0 0 24 24"><g clip-path="url(#a)"><path fill="url(#b)" d="M0 0h24v24H0z"/><path fill="#fff" d="M7.286 10.715H5.57v-.858h1.715c0 .022 0-.025 0 0 0-.283-.018-.711 0-.994.034-.536 0-1.029.304-1.47.308-.44.77-.749 1.294-.866a3.9 3.9 0 0 1 1.294-.077c.45.043.896.146 1.316.317l.077.035-.291.762-.176-.072a3.2 3.2 0 0 0-1.723-.18c-.668.111-1.238.608-1.238 1.371v1.174h2.571v.857H8.143v6h-.857z"/><path fill="#F7D509" d="m16.072 13.714 1.07-2.142h-.856l-.857 1.714-.857-1.714h-.858l1.072 2.142-1.072 2.143h.857l.858-1.714.857 1.714h.857zm-2.77 2.537-.535.463c-1.508-1.47-1.671-4.29-.008-6l.54.472c-.686.831-.87 1.444-.87 2.528 0 .836.347 1.903.874 2.537m4.252 0 .54.463c1.5-1.47 1.672-4.29.005-6l-.54.472c.685.831.87 1.427.87 2.528 0 .879-.352 1.89-.875 2.537"/></g><defs><linearGradient id="b" x1="4.466" x2="29.207" y1="4.161" y2="32.58" gradientUnits="userSpaceOnUse"><stop stop-color="#1A1E21"/><stop offset="1" stop-color="#06060A"/></linearGradient><clipPath id="a"><path fill="#fff" d="M0 0h24v24H0z"/></clipPath></defs></svg>
